build/img/app-icon.svg

<svg width="120" height="120" viewBox="0 0 120 120" fill="none" xmlns="http://www.w3.org/2000/svg">
<path d="M108 0H12C5.37258 0 0 5.37258 0 12V108C0 114.627 5.37258 120 12 120H108C114.627 120 120 114.627 120 108V12C120 5.37258 114.627 0 108 0Z" fill="url(#paint0_linear)"/>
<path d="M16.1923 55.4364C16.6289 55.9758 17.2609 56.3209 17.9507 56.3964C18.6405 56.4719 19.3322 56.2718 19.8751 55.8396L22.3027 53.8896V94.6356C22.3058 95.8956 22.8076 97.1031 23.6982 97.9944C24.5888 98.8857 25.7959 99.3883 27.0559 99.3924H94.6399C95.9004 99.3889 97.1083 98.8867 97.9996 97.9953C98.8909 97.104 99.3932 95.8961 99.3967 94.6356V53.9712L101.75 55.8636C102.216 56.2325 102.793 56.4341 103.388 56.436C103.782 56.4357 104.17 56.3456 104.524 56.1723C104.877 55.9991 105.186 55.7474 105.428 55.4364C105.859 54.8922 106.059 54.2001 105.983 53.5099C105.908 52.8196 105.563 52.1869 105.025 51.7488L63.6667 18.492L62.7163 18.0192C62.1227 17.761 61.482 17.6288 60.8346 17.6308C60.1873 17.6329 59.5474 17.7692 58.9555 18.0312L57.9595 18.492L16.5967 51.7536C16.0573 52.1902 15.7122 52.8222 15.6367 53.512C15.5612 54.2018 15.7613 54.8935 16.1935 55.4364" fill="white"/>
<path d="M77.4263 79.4975C78.7501 78.9661 79.9434 78.1548 80.9243 77.119C81.8869 76.0871 82.6375 74.8762 83.1335 73.555C83.6812 72.1784 83.9551 70.7082 83.9399 69.2267C83.9673 67.7293 83.693 66.2418 83.1335 64.8527C82.636 63.5458 81.8852 62.3501 80.9243 61.3342C79.935 60.303 78.7444 59.4861 77.4263 58.9342C75.9828 58.3591 74.4417 58.0685 72.8879 58.0786H66.4931V80.473H72.8879C74.4493 80.4424 75.9902 80.1111 77.4263 79.4975ZM72.8879 51.3262C75.3524 51.312 77.7968 51.7715 80.0879 52.6799C82.2609 53.5796 84.2457 54.8793 85.9391 56.5114C87.6096 58.1354 88.9424 60.0738 89.8607 62.2151C90.8216 64.4259 91.2998 66.8163 91.2635 69.2267C91.2881 71.6359 90.8103 74.0239 89.8607 76.2383C88.9113 78.3632 87.5823 80.2972 85.9391 81.9454C84.2669 83.5857 82.2752 84.8646 80.0879 85.7026C77.8103 86.662 75.3589 87.1396 72.8879 87.1055H59.1719V51.3262H72.8879Z" fill="#231F20"/>
<path d="M41.3638 66.1355C40.4756 66.135 39.6075 65.8713 38.8693 65.3775C38.131 64.8838 37.5557 64.1823 37.216 63.3616C36.8764 62.541 36.7876 61.6381 36.961 60.767C37.1344 59.896 37.5621 59.0959 38.1901 58.4679C38.8182 57.8398 39.6183 57.4121 40.4893 57.2387C41.3604 57.0653 42.2633 57.1541 43.0839 57.4937C43.9046 57.8334 44.6061 58.4087 45.0998 59.147C45.5935 59.8853 45.8573 60.7534 45.8578 61.6415C45.8584 62.2318 45.7426 62.8165 45.517 63.362C45.2914 63.9076 44.9604 64.4032 44.5429 64.8207C44.1255 65.2381 43.6298 65.5691 43.0843 65.7947C42.5388 66.0203 41.9541 66.1361 41.3638 66.1355ZM41.3638 50.7083C39.2007 50.7078 37.0861 51.3488 35.2874 52.5503C33.4887 53.7517 32.0867 55.4596 31.2587 57.4579C30.4307 59.4562 30.2139 61.6552 30.6358 63.7767C31.0577 65.8983 32.0992 67.847 33.6288 69.3765C35.1583 70.906 37.107 71.9476 39.2286 72.3695C41.3501 72.7914 43.5491 72.5746 45.5474 71.7466C47.5457 70.9186 49.2536 69.5166 50.455 67.7179C51.6565 65.9192 52.2975 63.8046 52.297 61.6415C52.2954 58.7423 51.143 55.9624 49.093 53.9123C47.0429 51.8623 44.263 50.7099 41.3638 50.7083Z" fill="#231F20"/>
<defs>
<linearGradient id="paint0_linear" x1="60" y1="0" x2="60" y2="120" gradientUnits="userSpaceOnUse">
<stop stop-color="#7FB0F8"/>
<stop offset="1" stop-color="#D5D3FF"/>
</linearGradient>
</defs>
</svg>

<svg width="120" height="120" viewBox="0 0 120 120" fill="none" xmlns="http://www.w3.org/2000/svg"><path d="M108 0H12C5.373 0 0 5.373 0 12v96c0 6.627 5.373 12 12 12h96c6.627 0 12-5.373 12-12V12c0-6.627-5.373-12-12-12z" fill="url(#paint0_linear)"/><path d="M16.192 55.436a2.63 2.63 0 003.683.404l2.428-1.95v40.746a4.769 4.769 0 004.753 4.756H94.64a4.77 4.77 0 004.757-4.756V53.97l2.353 1.893c.466.369 1.043.57 1.638.572a2.586 2.586 0 002.04-1 2.638 2.638 0 00-.403-3.687L63.667 18.492l-.95-.473a4.681 4.681 0 00-3.761.012l-.997.461-41.362 33.262a2.63 2.63 0 00-.404 3.682" fill="#fff"/><path d="M77.426 79.498a9.893 9.893 0 003.498-2.379 10.778 10.778 0 002.21-3.564 11.41 11.41 0 00.806-4.328 11.16 11.16 0 00-.806-4.374 10.617 10.617 0 00-2.21-3.519 10.43 10.43 0 00-3.498-2.4 12.05 12.05 0 00-4.538-.855h-6.395v22.394h6.395a12.157 12.157 0 004.538-.975zm-4.538-28.172a19.234 19.234 0 017.2 1.354c2.173.9 4.158 2.2 5.851 3.831a17.665 17.665 0 013.922 5.704 16.95 16.95 0 011.402 7.012 17.342 17.342 0 01-1.402 7.011 19.145 19.145 0 01-3.922 5.707 17.084 17.084 0 01-5.851 3.758 17.91 17.91 0 01-7.2 1.403H59.172v-35.78h13.716zM41.364 66.135a4.491 4.491 0 11.004-8.981 4.491 4.491 0 01-.004 8.981zm0-15.427a10.935 10.935 0 10-.005 21.87 10.935 10.935 0 00.005-21.87z" fill="#231F20"/><defs><linearGradient id="paint0_linear" x1="60" y1="0" x2="60" y2="120" gradientUnits="userSpaceOnUse"><stop stop-color="#7FB0F8"/><stop offset="1" stop-color="#D5D3FF"/></linearGradient></defs></svg>
